raw/symbols/xau.svg

<svg width="36" height="36" viewBox="0 0 36 36" fill="none" xmlns="http://www.w3.org/2000/svg">
<rect width="36" height="36" rx="18" fill="url(#paint0_linear_11793_279145)"/>
<path d="M13.8903 8.74167L11.8671 14.9831C11.7789 15.2552 11.9818 15.5342 12.2678 15.5342H23.7326C24.0187 15.5342 24.2215 15.2552 24.1333 14.9831L22.1101 8.74167C22.0668 8.60807 21.9423 8.51758 21.8019 8.51758H14.1985C14.0581 8.51758 13.9336 8.60807 13.8903 8.74167Z" fill="#ADA976" stroke="#F3F3F3" stroke-width="0.648" stroke-linejoin="round"/>
<path d="M21.8175 8.68703L12.1396 15.233L14.0965 8.66992L21.8175 8.68703Z" fill="#F3F3F3" stroke="#F3F3F3" stroke-width="0.324"/>
<path d="M18.1104 13.8537C17.9314 13.8537 17.7864 13.9988 17.7864 14.1777C17.7864 14.3567 17.9314 14.5017 18.1104 14.5017V13.8537ZM23.8981 13.8537H18.1104V14.5017H23.8981V13.8537Z" fill="#F3F3F3"/>
<path d="M6.28243 18.3501L4.25921 24.5915C4.17101 24.8636 4.37386 25.1426 4.65989 25.1426H16.1247C16.4108 25.1426 16.6136 24.8636 16.5254 24.5915L14.5022 18.3501C14.4589 18.2165 14.3344 18.126 14.194 18.126H6.59064C6.45019 18.126 6.32574 18.2165 6.28243 18.3501Z" fill="#ADA976" stroke="#F3F3F3" stroke-width="0.648" stroke-linejoin="round"/>
<path d="M14.2096 18.2954L4.53174 24.8414L6.48861 18.2783L14.2096 18.2954Z" fill="#F3F3F3" stroke="#F3F3F3" stroke-width="0.324"/>
<path d="M10.5024 23.4621C10.3235 23.4621 10.1784 23.6072 10.1784 23.7861C10.1784 23.9651 10.3235 24.1101 10.5024 24.1101V23.4621ZM16.2901 23.4621H10.5024V24.1101H16.2901V23.4621Z" fill="#F3F3F3"/>
<path d="M21.4978 18.3501L19.4745 24.5915C19.3863 24.8636 19.5892 25.1426 19.8752 25.1426H31.3401C31.6261 25.1426 31.8289 24.8636 31.7407 24.5915L29.7175 18.3501C29.6742 18.2165 29.5498 18.126 29.4093 18.126H21.806C21.6655 18.126 21.5411 18.2165 21.4978 18.3501Z" fill="#ADA976" stroke="#F3F3F3" stroke-width="0.648" stroke-linejoin="round"/>
<path d="M29.4249 18.2954L19.7471 24.8414L21.7039 18.2783L29.4249 18.2954Z" fill="#F3F3F3" stroke="#F3F3F3" stroke-width="0.324"/>
<path d="M25.7236 23.4621C25.5447 23.4621 25.3996 23.6072 25.3996 23.7861C25.3996 23.9651 25.5447 24.1101 25.7236 24.1101V23.4621ZM31.5113 23.4621H25.7236V24.1101H31.5113V23.4621Z" fill="#F3F3F3"/>
<defs>
<linearGradient id="paint0_linear_11793_279145" x1="30.8037" y1="3.72816" x2="5.73534" y2="30.7844" gradientUnits="userSpaceOnUse">
<stop stop-color="#6C6A4F"/>
<stop offset="1" stop-color="#ADA976"/>
</linearGradient>
</defs>
</svg>

<svg xmlns="http://www.w3.org/2000/svg" width="36" height="36" fill="none"><rect width="36" height="36" fill="url(#a)" rx="18"/><path fill="#ADA976" stroke="#F3F3F3" stroke-linejoin="round" stroke-width=".648" d="m13.89 8.742-2.023 6.241a.421.421 0 0 0 .4.551h11.466a.421.421 0 0 0 .4-.55L22.11 8.741a.324.324 0 0 0-.308-.224h-7.604c-.14 0-.264.09-.308.224Z"/><path fill="#F3F3F3" stroke="#F3F3F3" stroke-width=".324" d="m21.817 8.687-9.677 6.546 1.957-6.563 7.72.017Z"/><path fill="#F3F3F3" d="M18.11 13.854a.324.324 0 1 0 0 .648v-.648Zm5.788 0H18.11v.648h5.788v-.648Z"/><path fill="#ADA976" stroke="#F3F3F3" stroke-linejoin="round" stroke-width=".648" d="M6.282 18.35 4.26 24.591a.421.421 0 0 0 .4.552h11.466a.421.421 0 0 0 .4-.552l-2.023-6.24a.324.324 0 0 0-.308-.225H6.591c-.14 0-.265.09-.309.224Z"/><path fill="#F3F3F3" stroke="#F3F3F3" stroke-width=".324" d="m14.21 18.295-9.678 6.546 1.957-6.563 7.72.017Z"/><path fill="#F3F3F3" d="M10.502 23.462a.324.324 0 0 0 0 .648v-.648Zm5.788 0h-5.788v.648h5.788v-.648Z"/><path fill="#ADA976" stroke="#F3F3F3" stroke-linejoin="round" stroke-width=".648" d="m21.498 18.35-2.024 6.241a.421.421 0 0 0 .401.552H31.34a.421.421 0 0 0 .4-.552l-2.022-6.24a.324.324 0 0 0-.309-.225h-7.603c-.14 0-.265.09-.308.224Z"/><path fill="#F3F3F3" stroke="#F3F3F3" stroke-width=".324" d="m29.425 18.295-9.678 6.546 1.957-6.563 7.72.017Z"/><path fill="#F3F3F3" d="M25.724 23.462a.324.324 0 0 0 0 .648v-.648Zm5.787 0h-5.787v.648h5.787v-.648Z"/><defs><linearGradient id="a" x1="30.804" x2="5.735" y1="3.728" y2="30.784" gradientUnits="userSpaceOnUse"><stop stop-color="#6C6A4F"/><stop offset="1" stop-color="#ADA976"/></linearGradient></defs></svg>
